build/img/icons/talk.svg

<svg width="31" height="28" viewBox="0 0 31 28" fill="none" xmlns="http://www.w3.org/2000/svg">
<path d="M28.093 14.567C29.5287 13.0885 30.3945 11.174 30.3945 9.08203C30.3945 4.40053 25.6943 0.605469 20.3438 0.605469C14.9932 0.605469 10.6562 4.40053 10.6562 9.08203L20.3438 17.5586C21.7732 17.5586 23.4941 17.2873 24.7159 16.801C25.8225 18.0108 27.4145 18.7695 29.1836 18.7695C28.046 17.6319 27.682 16.0123 28.093 14.567Z" fill="#FC9B09"/>
<path d="M15.6522 10.293C18.466 11.7764 20.3477 14.475 20.3477 17.5586C20.3477 22.2401 16.0107 26.0352 10.6602 26.0352C9.23068 26.0352 7.50983 25.7639 6.28801 25.2776C5.18137 26.4874 3.58942 27.2461 1.82031 27.2461C2.95793 26.1085 3.32192 24.4888 2.91087 23.0435C1.47524 21.5651 0.609375 19.6505 0.609375 17.5586C0.609375 12.8771 5.30956 9.08203 10.6602 9.08203C12.4863 9.08203 14.1948 9.52407 15.6522 10.293Z" fill="white"/>
<path d="M15.4961 6.05469C15.1619 6.05469 14.8906 6.32597 14.8906 6.66016C14.8906 6.99435 15.1619 7.26562 15.4961 7.26562C15.8303 7.26562 16.1016 6.99435 16.1016 6.66016C16.1016 6.32597 15.8303 6.05469 15.4961 6.05469Z" fill="white"/>
<path d="M20.3438 0C14.8929 0 10.419 3.75816 10.073 8.49194C4.88183 8.75233 0 12.4956 0 17.5586C0 19.6744 0.83725 21.7245 2.36133 23.3489C2.66288 24.592 2.29676 25.9096 1.38832 26.818C1.21519 26.9911 1.1634 27.2515 1.25706 27.4779C1.35072 27.704 1.57138 27.8516 1.81641 27.8516C3.54317 27.8516 5.20727 27.1744 6.44375 25.9812C7.6483 26.3918 9.21992 26.6406 10.6562 26.6406C16.1064 26.6406 20.5798 22.8834 20.9268 18.1506C22.1945 18.0943 23.513 17.8601 24.5563 17.5047C25.7927 18.6979 27.4568 19.375 29.1836 19.375C29.4286 19.375 29.6493 19.2274 29.7429 19.0013C29.8366 18.775 29.7848 18.5146 29.6117 18.3414C28.7032 17.433 28.3371 16.1154 28.6387 14.8723C30.1628 13.2479 31 11.1979 31 9.08203C31 3.82131 25.7421 0 20.3438 0ZM10.6562 25.4297C9.22725 25.4297 7.59887 25.1492 6.50808 24.7152C6.27441 24.622 6.00739 24.6833 5.83733 24.8689C5.10628 25.6681 4.15574 26.2253 3.12006 26.4815C3.69076 25.3881 3.83645 24.0991 3.48925 22.8777C3.46181 22.7815 3.41096 22.6935 3.34119 22.6218C1.96754 21.207 1.21094 19.4088 1.21094 17.5586C1.21094 13.2919 5.53625 9.6875 10.6562 9.6875C15.491 9.6875 19.7383 13.0495 19.7383 17.5586C19.7383 21.8988 15.6641 25.4297 10.6562 25.4297ZM27.6588 14.1453C27.589 14.2172 27.5382 14.3051 27.5107 14.4012C27.1636 15.6225 27.3092 16.9115 27.8799 18.0049C26.8443 17.749 25.8937 17.1915 25.1627 16.3924C24.9926 16.2069 24.7256 16.1454 24.4919 16.2386C23.5466 16.6147 22.198 16.8751 20.9249 16.938C20.7479 14.6483 19.6058 12.4963 17.6532 10.8984H25.5508C25.8852 10.8984 26.1562 10.6274 26.1562 10.293C26.1562 9.95854 25.8852 9.6875 25.5508 9.6875H15.793C14.4187 8.9879 12.8754 8.57992 11.287 8.4943C11.6349 4.42773 15.5641 1.21094 20.3438 1.21094C25.4637 1.21094 29.7891 4.81537 29.7891 9.08203C29.7891 10.9323 29.0325 12.7305 27.6588 14.1453Z" fill="#37373F"/>
<path d="M15.5 15.7422H7.87109C7.53667 15.7422 7.26562 16.0132 7.26562 16.3477C7.26562 16.6821 7.53667 16.9531 7.87109 16.9531H15.5C15.8344 16.9531 16.1055 16.6821 16.1055 16.3477C16.1055 16.0132 15.8344 15.7422 15.5 15.7422Z" fill="#C94042"/>
<path d="M15.5 19.375H5.44922C5.11479 19.375 4.84375 19.646 4.84375 19.9805C4.84375 20.3149 5.11479 20.5859 5.44922 20.5859H15.5C15.8344 20.5859 16.1055 20.3149 16.1055 19.9805C16.1055 19.646 15.8344 19.375 15.5 19.375Z" fill="#37373F"/>
<path d="M25.5469 6.05469H17.918C17.5835 6.05469 17.3125 6.32573 17.3125 6.66016C17.3125 6.99458 17.5835 7.26562 17.918 7.26562H25.5469C25.8813 7.26562 26.1523 6.99458 26.1523 6.66016C26.1523 6.32573 25.8813 6.05469 25.5469 6.05469Z" fill="white"/>
</svg>

<svg width="31" height="28" fill="none" xmlns="http://www.w3.org/2000/svg"><path d="M28.093 14.567c1.436-1.479 2.302-3.393 2.302-5.485 0-4.681-4.7-8.477-10.051-8.477-5.35 0-9.688 3.796-9.688 8.477l9.688 8.477c1.43 0 3.15-.272 4.372-.758a6.037 6.037 0 004.468 1.969 4.281 4.281 0 01-1.091-4.203z" fill="#FC9B09"/><path d="M15.652 10.293c2.814 1.483 4.696 4.182 4.696 7.266 0 4.681-4.337 8.476-9.688 8.476-1.43 0-3.15-.271-4.372-.757a6.037 6.037 0 01-4.468 1.968 4.281 4.281 0 001.09-4.202C1.476 21.565.61 19.65.61 17.559c0-4.682 4.7-8.477 10.05-8.477 1.826 0 3.535.442 4.992 1.211zm-.156-4.238a.606.606 0 100 1.211.606.606 0 000-1.211z" fill="#fff"/><path d="M20.344 0c-5.451 0-9.925 3.758-10.271 8.492C4.882 8.752 0 12.496 0 17.559c0 2.115.837 4.165 2.361 5.79a3.682 3.682 0 01-.973 3.469.606.606 0 00.428 1.034 6.686 6.686 0 004.628-1.87c1.204.41 2.776.659 4.212.659 5.45 0 9.924-3.758 10.27-8.49 1.269-.057 2.587-.29 3.63-.646a6.678 6.678 0 004.628 1.87.605.605 0 00.428-1.034 3.682 3.682 0 01-.973-3.469C30.163 13.248 31 11.198 31 9.082 31 3.822 25.742 0 20.344 0zm-9.688 25.43c-1.429 0-3.057-.28-4.148-.715a.606.606 0 00-.67.154 5.463 5.463 0 01-2.718 1.613 4.897 4.897 0 00.37-3.604.605.605 0 00-.149-.256c-1.373-1.415-2.13-3.213-2.13-5.063 0-4.267 4.325-7.872 9.445-7.872 4.835 0 9.082 3.363 9.082 7.872 0 4.34-4.074 7.87-9.082 7.87zM27.66 14.145a.607.607 0 00-.148.256 4.897 4.897 0 00.369 3.604 5.462 5.462 0 01-2.717-1.613.606.606 0 00-.671-.153c-.945.376-2.294.636-3.567.699-.177-2.29-1.32-4.442-3.272-6.04h7.898a.605.605 0 100-1.21h-9.758a11.292 11.292 0 00-4.506-1.194c.348-4.066 4.277-7.283 9.057-7.283 5.12 0 9.445 3.604 9.445 7.871 0 1.85-.757 3.648-2.13 5.063z" fill="#37373F"/><path d="M15.5 15.742H7.871a.605.605 0 100 1.211H15.5a.605.605 0 100-1.21z" fill="#C94042"/><path d="M15.5 19.375H5.45a.605.605 0 100 1.21H15.5a.605.605 0 100-1.21z" fill="#37373F"/><path d="M25.547 6.055h-7.629a.605.605 0 100 1.21h7.629a.605.605 0 100-1.21z" fill="#fff"/></svg>
